X: 14
T: Avertissiez / Averte oculus
N: Derived from Ano3015-Avertissiez__Averte_oculus--Escorial_B.krn
C: Anonymous
%%abc-version 2.0
%%abcx-abcm2ps-target-version 5.9.1 (29 Sep 2008)
%%abc-creator hum2abc beta
%%abcx-conversion-date 2019/02/16 20:18:27
%%abc-edited-by Jesse Rodin
%%abc-edited-by Chris Gage 02-19-2015
%%abcx-initial-encoding-date 2015/02/25/
%%humdrum-veritas 3395200175
%%humdrum-veritas-data 142026594
%%linebreak <none>
%%barnumbers 0
L: 1/4
M: 2/1
Q: 1/2=120
V: 1 clef=treble
V: 2 clef=treble-8
V: 3 clef=treble-8
K: F
[V:1] G8- | 
[V:2] G8 | 
[V:3] G8 | 
[V:1] G4E4 | 
[V:2] c8 | 
[V:3] C8 | 
[V:1] D4E4 | 
[V:2] B4c4 | 
[V:3] G4E4 | 
[V:1] F4G4 | 
[V:2] d8 | 
[V:3] D4E4 | 
[V:1] A8 | 
[V:2] c4c4 | 
[V:3] F8 | 
[V:1] d6c2 | 
[V:2] B8 | 
[V:3] G8 | 
[V:1] B6A2 | 
[V:2] G8 | 
[V:3] d8 | 
[V:1] G8 | 
[V:2] z8 | 
[V:3] d4e4 | 
[V:1] B4A4- | 
[V:2] d8 | 
[V:3] f8 | 
[V:1] A4c4 | 
[V:2] c4A4 | 
[V:3] e4f4 | 
[V:1] B6AG | 
[V:2] G8 | 
[V:3] g2f2e2d2 | 
[V:1] ^F6E2 | 
[V:2] A8 | 
[V:3] c6=B2 | 
[V:1] G8 | 
[V:2] G8- | 
[V:3] d8- | 
[V:1] z8 | 
[V:2] G8 | 
[V:3] d8 | 
[V:1] =B8 | 
[V:2] g8- | 
[V:3] G8- | 
[V:1] =B8 | 
[V:2] g8 | 
[V:3] G8 | 
[V:1] A8 | 
[V:2] ^f8 | 
[V:3] d8 | 
[V:1] =B4d4- | 
[V:2] g8 | 
[V:3] G8 | 
[V:1] d4d2c2 | 
[V:2] f4d4 | 
[V:3] z4d4 | 
[V:1] e6d2 | 
[V:2] c8 | 
[V:3] g8- | 
[V:1] =B8 | 
[V:2] z8 | 
[V:3] g8 | 
[V:1] e4d4- | 
[V:2] g8 | 
[V:3] G8 | 
[V:1] d2c2c4- | 
[V:2] e8 | 
[V:3] c8 | 
[V:1] c2=B2B2A2 | 
[V:2] d4d4 | 
[V:3] G8 | 
[V:1] c8 | 
[V:2] c8 | 
[V:3] g4e4 | 
[V:1] z4c4 | 
[V:2] d4e4 | 
[V:3] d4A4 | 
[V:1] d6c2 | 
[V:2] d8 | 
[V:3] B8 | 
[V:1] =B8 | 
[V:2] g8 | 
[V:3] G8 | 
[V:1] A8 | 
[V:2] d8 | 
[V:3] f6ed | 
[V:1] F4E4 | 
[V:2] A8 | 
[V:3] c8 | 
[V:1] D4G4- | 
[V:2] B4A4 | 
[V:3] G8 | 
[V:1] G2A2B4 | 
[V:2] G8 | 
[V:3] d8 | 
[V:1] A4c4- | 
[V:2] A4A4 | 
[V:3] c2B2A2F2 | 
[V:1] c2B2A2G2 | 
[V:2] B8 | 
[V:3] G8 | 
[V:1] F6G2 | 
[V:2] d8 | 
[V:3] D8- | 
[V:1] A8 | 
[V:2] z8 | 
[V:3] D8 | 
[V:1] z4d4 | 
[V:2] G8 | 
[V:3] d8 | 
[V:1] c4A4 | 
[V:2] A4c4 | 
[V:3] z8 | 
[V:1] =B2A2G2F2 | 
[V:2] d8 | 
[V:3] D8 | 
[V:1] E8 | 
[V:2] ^c8 | 
[V:3] A8 | 
[V:1] D8 | 
[V:2] d8- | 
[V:3] D8 | 
[V:1] z8 | 
[V:2] d8 | 
[V:3] F8 | 
[V:1] B8 | 
[V:2] G8 | 
[V:3] G4E4 | 
[V:1] A4A4 | 
[V:2] c8 | 
[V:3] F8 | 
[V:1] d8 | 
[V:2] B4c4 | 
[V:3] G8 | 
[V:1] A4B4- | 
[V:2] d8 | 
[V:3] z8 | 
[V:1] B2A2A4- | 
[V:2] c4c4 | 
[V:3] z4F4 | 
[V:1] A2G2G4- | 
[V:2] B8 | 
[V:3] G8- | 
[V:1] G2F2D4- | 
[V:2] G8 | 
[V:3] G4F4 | 
[V:1] D2E2F4- | 
[V:2] z8 | 
[V:3] D8- | 
[V:1] F2G2A4- | 
[V:2] d8 | 
[V:3] D8 | 
[V:1] A2=B2c4 | 
[V:2] c4A4 | 
[V:3] A4F4 | 
[V:1] =B6AG | 
[V:2] G8 | 
[V:3] G8 | 
[V:1] ^F6E2 | 
[V:2] A8 | 
[V:3] D8 | 
[V:1] G8- | 
[V:2] G8- | 
[V:3] E8 | 
[V:1] G8 |]  
[V:2] G8 |]  
[V:3] C8 |]  



